X: 1
T: la Marche au Camp
O: Québec
M: 6/8
L: 1/8
K: G
G |\
"G"Bcd B2G | DGA BGA | "G"Bcd B2G | DGF "Em"E3 |\
   EFG "C"DGF | EFG "G"B2G | DGA BAB |1 dBG "D7"A2 :|2 "D7"cAF "G"G3 ||
|:\
"D"A2-A ABc | A2-A ABc | "G"B2B BcB | "G"dBG GAB |\
"D"A2-A ABc | A2-A ABc | "G"Bcd gdB | "D7"ABA "G"G3 :|
